svg/regular/bx-message-error.svg

<svg xmlns="http://www.w3.org/2000/svg" width="24" height="24"><path d="M20 2H4c-1.103 0-2 .897-2 2v12c0 1.103.897 2 2 2h3v3.767L13.277 18H20c1.103 0 2-.897 2-2V4c0-1.103-.897-2-2-2zm0 14h-7.277L9 18.233V16H4V4h16v12z"/><path d="M11 6h2v5h-2zm0 6h2v2h-2z"/></svg>

<svg xmlns="http://www.w3.org/2000/svg" width="24" height="24" viewBox="0 0 24 24"><path d="M20,2H4C2.897,2,2,2.897,2,4v12c0,1.103,0.897,2,2,2h3v3.767L13.277,18H20c1.103,0,2-0.897,2-2V4C22,2.897,21.103,2,20,2z M20,16h-7.277L9,18.233V16H4V4h16V16z"/><path d="M11 6H13V11H11zM11 12H13V14H11z"/></svg>
